actions/16/system-lock-screen.svg

<?xml version="1.0" encoding="UTF-8" standalone="no"?>
<!-- Created with Inkscape (http://www.inkscape.org/) -->

<svg
   xmlns:svg="http://www.w3.org/2000/svg"
   xmlns="http://www.w3.org/2000/svg"
   xmlns:xlink="http://www.w3.org/1999/xlink"
   version="1.0"
   width="16"
   height="16"
   id="svg2534">
  <defs
     id="defs2536">
    <linearGradient
       id="linearGradient2437">
      <stop
         id="stop2439"
         style="stop-color:#b3b3b3;stop-opacity:1"
         offset="0" />
      <stop
         id="stop2441"
         style="stop-color:#d2d2d2;stop-opacity:1"
         offset="1" />
    </linearGradient>
    <linearGradient
       x1="29.009098"
       y1="36.827461"
       x2="29.009098"
       y2="43.065559"
       id="linearGradient2480"
       xlink:href="#linearGradient2437"
       gradientUnits="userSpaceOnUse"
       gradientTransform="matrix(0.3043478,0,0,0.3333333,0.6956517,0.6666657)" />
    <linearGradient
       id="linearGradient2327">
      <stop
         id="stop2329"
         style="stop-color:white;stop-opacity:1"
         offset="0" />
      <stop
         id="stop2331"
         style="stop-color:#ccc;stop-opacity:1"
         offset="1" />
    </linearGradient>
    <linearGradient
       x1="32.733955"
       y1="2.4819527"
       x2="32.733955"
       y2="34.718117"
       id="linearGradient2476"
       xlink:href="#linearGradient2327"
       gradientUnits="userSpaceOnUse"
       gradientTransform="matrix(0.3231408,0,0,0.3412459,0.2123673,0.1525853)" />
  </defs>
  <g
     id="layer1">
    <path
       d="m 4.9512838,12.502276 c 0,0 -0.4405222,1.999091 -0.4405222,2.13263 0,0.126139 -0.099124,0.865092 0.3042946,0.865092 0.3963591,0 6.1396108,0 6.4474378,0 0.308406,0 0.209767,-0.886179 0.236491,-0.956565 0.02585,-0.06808 -0.45033,-2.043435 -0.45033,-2.043435 l -6.0973712,0.0023 z"
       id="path2170"
       style="fill:url(#linearGradient2480);fill-opacity:1;fill-rule:evenodd;stroke:#999;stroke-width:0.99999976;stroke-linecap:round;stroke-linejoin:round;stroke-miterlimit:4;stroke-opacity:1;stroke-dasharray:none" />
    <path
       d="m 0.57186061,1.539902e-4 c 4.95209339,0 9.90418739,0 14.85627939,0 0.552077,-0.00476124 0.599248,0.6304031698 0.562311,1.0686449098 0,3.775343 -1e-6,7.550685 -1e-6,11.3260291 0.0045,0.584236 -0.595702,0.634155 -1.009821,0.595067 -4.802924,0 -9.6058457,0 -14.40876839,0 -0.55207637,0.0048 -0.59924854,-0.630404 -0.562311,-1.068645 0,-3.7753445 0,-7.5506874 0,-11.3260303 C 0.00225068,0.27535638 0.2695014,-0.00754388 0.57186061,1.539902e-4 z"
       id="rect3170"
       style="fill:#1a1a1a;fill-opacity:1;fill-rule:evenodd;stroke:none;stroke-width:1.00396311;marker:none;visibility:visible;display:inline;overflow:visible;enable-background:accumulate" />
    <path
       d="m 1,1 c 4.6666674,0 9.333334,0 14.000001,0 0,3.6666665 0,7.3333331 0,11 C 10.333334,12 5.6666674,12 1,12 1,8.3333331 1,4.6666665 1,1 z"
       id="rect4151"
       style="fill:url(#linearGradient2476);fill-opacity:1;fill-rule:evenodd;stroke:none;stroke-width:1.00280869;marker:none;visibility:visible;display:inline;overflow:visible;enable-background:accumulate" />
    <path
       d="M 7.8125024,2.5011831 C 6.5271066,2.5452293 5.675003,3.221255 5.675003,4.6156118 l 0,1.0927095 -0.2892885,0 c -0.2122568,0 -0.3857138,0.1599012 -0.3857138,0.36015 l 0,4.0713787 c 0,0.200249 0.173457,0.360151 0.3857138,0.36015 l 5.2339265,0 C 10.831901,10.5 11,10.340099 11,10.13985 l 0,-4.0713787 c 0,-0.2002488 -0.168099,-0.36015 -0.380359,-0.36015 l -0.294643,0 0.0054,-1.0694735 c 0,-1.4801412 -0.9250064,-2.1193963 -2.3249971,-2.1376647 -0.065271,-8.569e-4 -0.1296405,-0.00217 -0.1928565,0 z m 0.1285704,0.9352272 c 0.023636,-5.821e-4 0.05056,0 0.075,0 1.5533186,0 1.4342048,1.2083353 1.4571421,1.568396 l 0,0.703515 -2.9250002,0 0,-0.6977064 C 6.5427006,4.6534133 6.4519987,3.4731518 7.9410728,3.4364103 z"
       id="path2086"
       style="opacity:0.69886361;fill:#888a85;fill-opacity:1;fill-rule:nonzero;stroke:none;stroke-width:1;marker:none;visibility:visible;display:block;overflow:visible" />
  </g>
</svg>

<?xml version="1.0" encoding="UTF-8" standalone="no"?>
<!-- Created with Inkscape (http://www.inkscape.org/) -->
<svg
   xmlns:svg="http://www.w3.org/2000/svg"
   xmlns="http://www.w3.org/2000/svg"
   xmlns:xlink="http://www.w3.org/1999/xlink"
   version="1.0"
   width="16"
   height="16"
   id="svg2534">
  <defs
     id="defs2536">
    <linearGradient
       id="linearGradient2437">
      <stop
         id="stop2439"
         style="stop-color:#b3b3b3;stop-opacity:1"
         offset="0" />
      <stop
         id="stop2441"
         style="stop-color:#d2d2d2;stop-opacity:1"
         offset="1" />
    </linearGradient>
    <linearGradient
       x1="29.009098"
       y1="36.827461"
       x2="29.009098"
       y2="43.065559"
       id="linearGradient2480"
       xlink:href="#linearGradient2437"
       gradientUnits="userSpaceOnUse"
       gradientTransform="matrix(0.3043478,0,0,0.3333333,0.6956517,0.6666657)" />
    <linearGradient
       id="linearGradient2327">
      <stop
         id="stop2329"
         style="stop-color:#ffffff;stop-opacity:1"
         offset="0" />
      <stop
         id="stop2331"
         style="stop-color:#cccccc;stop-opacity:1"
         offset="1" />
    </linearGradient>
    <linearGradient
       x1="32.733955"
       y1="2.4819527"
       x2="32.733955"
       y2="34.718117"
       id="linearGradient2476"
       xlink:href="#linearGradient2327"
       gradientUnits="userSpaceOnUse"
       gradientTransform="matrix(0.3231408,0,0,0.3412459,0.2123673,0.1525853)" />
  </defs>
  <g
     id="layer1">
    <path
       d="M 4.9512838,12.502276 C 4.9512838,12.502276 4.5107616,14.501367 4.5107616,14.634906 C 4.5107616,14.761045 4.4116376,15.499998 4.8150562,15.499998 C 5.2114153,15.499998 10.954667,15.499998 11.262494,15.499998 C 11.5709,15.499998 11.472261,14.613819 11.498985,14.543433 C 11.524832,14.475355 11.048655,12.499998 11.048655,12.499998 L 4.9512838,12.502276 z"
       id="path2170"
       style="fill:url(#linearGradient2480);fill-opacity:1;fill-rule:evenodd;stroke:#999999;stroke-width:0.99999976;stroke-linecap:round;stroke-linejoin:round;stroke-miterlimit:4;stroke-dasharray:none;stroke-opacity:1" />
    <path
       d="M 0.57186061,0.0001539902 C 5.523954,0.0001539902 10.476048,0.0001539902 15.42814,0.0001539902 C 15.980217,-0.0046072524 16.027388,0.63055716 15.990451,1.0687989 C 15.990451,4.8441419 15.99045,8.6194839 15.99045,12.394828 C 15.994951,12.979064 15.394748,13.028983 14.980629,12.989895 C 10.177705,12.989895 5.3747833,12.989895 0.57186061,12.989895 C 0.019784242,12.994655 -0.027387928,12.359491 0.0095496098,11.92125 C 0.0095496098,8.1459055 0.0095496098,4.3705626 0.0095496098,0.5952197 C 0.0022506796,0.27535638 0.2695014,-0.0075438802 0.57186061,0.0001539902 z"
       id="rect3170"
       style="fill:#1a1a1a;fill-opacity:1;fill-rule:evenodd;stroke:none;stroke-width:1.00396311;stroke-linecap:round;stroke-linejoin:round;marker:none;marker-start:none;marker-mid:none;marker-end:none;stroke-miterlimit:4;stroke-dasharray:none;stroke-dashoffset:0;stroke-opacity:1;visibility:visible;display:inline;overflow:visible;enable-background:accumulate" />
    <path
       d="M 1,1 C 5.6666674,1 10.333334,1 15.000001,1 C 15.000001,4.6666665 15.000001,8.3333331 15.000001,12 C 10.333334,12 5.6666674,12 1,12 C 1,8.3333331 1,4.6666665 1,1 z"
       id="rect4151"
       style="fill:url(#linearGradient2476);fill-opacity:1;fill-rule:evenodd;stroke:none;stroke-width:1.00280869;stroke-linecap:round;stroke-linejoin:round;marker:none;marker-start:none;marker-mid:none;marker-end:none;stroke-miterlimit:4;stroke-dasharray:none;stroke-dashoffset:0;stroke-opacity:1;visibility:visible;display:inline;overflow:visible;enable-background:accumulate" />
    <path
       d="M 7.8125024,2.5011831 C 6.5271066,2.5452293 5.675003,3.221255 5.675003,4.6156118 L 5.675003,5.7083213 L 5.3857145,5.7083213 C 5.1734577,5.7083213 5.0000007,5.8682225 5.0000007,6.0684713 L 5.0000007,10.13985 C 5.0000007,10.340099 5.1734577,10.500001 5.3857145,10.5 L 10.619641,10.5 C 10.831901,10.5 11,10.340099 11,10.13985 L 11,6.0684713 C 11,5.8682225 10.831901,5.7083213 10.619641,5.7083213 L 10.324998,5.7083213 L 10.330356,4.6388478 C 10.330356,3.1587066 9.4053496,2.5194515 8.0053589,2.5011831 C 7.9400879,2.5003262 7.8757184,2.4990159 7.8125024,2.5011831 z M 7.9410728,3.4364103 C 7.9647089,3.4358282 7.9916324,3.4364103 8.0160727,3.4364103 C 9.5693913,3.4364103 9.4502775,4.6447456 9.4732148,5.0048063 L 9.4732148,5.7083213 L 6.5482146,5.7083213 L 6.5482146,5.0106149 C 6.5427006,4.6534133 6.4519987,3.4731518 7.9410728,3.4364103 z"
       id="path2086"
       style="opacity:0.69886361;fill:#888a85;fill-opacity:1;fill-rule:nonzero;stroke:none;stroke-width:1;stroke-linecap:butt;stroke-linejoin:miter;marker:none;marker-start:none;marker-mid:none;marker-end:none;stroke-miterlimit:4;stroke-dasharray:none;stroke-dashoffset:0;stroke-opacity:1;visibility:visible;display:block;overflow:visible" />
  </g>
</svg>
